X:1
T:Title
%%score { ( 1 4 ) | ( 2 3 ) }
L:1/8
Q:1/4=100
M:6/8
K:Ab
V:1 treble nm="Grand Piano"
V:4 treble 
V:2 bass 
V:3 bass 
V:1
 [CE]>[CE][CE] [CE][A,C][B,D] | [CE][CA][Fd] [Ec]3 | cB=A B2 c | [DB]2 [CA] [CE]3 | %4
w: B.~D.~Ackley * * * * *||||
 [CE]>[CE][CE] [CE][A,C][B,D] | [CE][CA][Fd] [Ec]3 | cB=A c2 B | [CA]6 | [FA][=EG][FB] FA[Fd] | %9
w: |||||
 [Ec]2 [CE] [Ec]3 | z3 B3[K:bass] | z3[K:treble] A3 | [FA][=EG][GB] [DF][FA][Fd] | %13
w: ||||
 [Ec]2 [CE] [Ec]3 | [Dc][DB][DF] [Dc]2 [DB] | [CA]6 |] %16
w: |||
V:2
 [A,,A,]>[A,,A,][A,,A,] [A,,A,][A,,E,][A,,E,] | [A,,A,][A,,A,][A,,A,] [A,,A,]3 | %2
 [E,G,E][E,G,D][E,_G,C] [E,=G,D]2 [E,G,E] | [A,,A,]2 [A,,E,] [A,,A,]3 | %4
 [A,,A,]>[A,,A,][A,,A,] [A,,A,][A,,E,][A,,E,] | [A,,A,][A,,A,][A,,A,] [A,,A,]3 | %6
 [E,A,E][E,G,D][E,_G,C] [E,A,E]2 [E,=G,D] | [A,,A,]6 | z3 .D3 | [A,,A,]2 [A,,A,] [A,,A,]3 | %10
 [E,G,D][E,G,D][E,G,D] .[E,G,D]3 | [A,,E,A,][A,,A,][A,,E,] [A,,E,]2 [C,A,] | %12
 [D,D][D,D][D,D] [D,A,][D,D][D,A,] | [A,,A,]2 [A,,A,] [A,,A,]3 | %14
 [B,,A,][B,,A,][B,,A,] [E,G,]2 [E,G,] | [A,,A,]6 |] %16
V:3
 x6 | x6 | x6 | x6 | x6 | x6 | x6 | x6 | [D,A,][D,A,][D,D] [D,A,][D,A,][D,A,] | x6 | x6 | x6 | x6 | %13
 x6 | x6 | x6 |] %16
V:4
 x6 | x6 | x6 | x6 | x6 | x6 | x6 | x6 | x6 | x6 | EGc z2[K:bass] E, | C[K:treble][CE][CB] C2 E | %12
 x6 | x6 | x6 | x6 |] %16

